content/images/logos/geocaching.svg

<?xml version="1.0" encoding="UTF-8" standalone="no"?>
<!DOCTYPE svg PUBLIC "-//W3C//DTD SVG 20010904//EN" "http://www.w3.org/TR/2001/REC-SVG-20010904/DTD/svg10.dtd">
<!-- Created with Inkscape (http://www.inkscape.org/) -->
<svg id="svg955" sodipodi:version="0.32" inkscape:version="0.39" width="600.00000pt" height="600.00000pt" sodipodi:docname="Geocaching.svg" xmlns="http://www.w3.org/2000/svg" xmlns:cc="http://web.resource.org/cc/" xmlns:inkscape="http://www.inkscape.org/namespaces/inkscape" xmlns:sodipodi="http://sodipodi.sourceforge.net/DTD/sodipodi-0.dtd" xmlns:rdf="http://www.w3.org/1999/02/22-rdf-syntax-ns#" xmlns:dc="http://purl.org/dc/elements/1.1/" xmlns:xlink="http://www.w3.org/1999/xlink" sodipodi:docbase="/home/jpkontio/Projects/Geocaching/Images" data-ember-extension="1">
  <defs id="defs957"/>
  <sodipodi:namedview id="base" pagecolor="#ffffff" bordercolor="#666666" borderopacity="1.0" inkscape:pageopacity="0.0" inkscape:pageshadow="2" inkscape:zoom="0.49850178" inkscape:cx="515.71413" inkscape:cy="337.56998" inkscape:window-width="740" inkscape:window-height="641" inkscape:window-x="148" inkscape:window-y="31"/>
  <metadata id="metadata958">
    <rdf:RDF id="RDF959">
      <cc:Work rdf:about="" id="Work960">
        <dc:format id="format961">image/svg+xml</dc:format>
        <dc:type id="type963" rdf:resource="http://purl.org/dc/dcmitype/StillImage"/>
      </cc:Work>
    </rdf:RDF>
  </metadata>
  <path style="fill:#000000;fill-opacity:1.0000000;fill-rule:evenodd;stroke:none;stroke-width:1.0000000pt;stroke-linecap:butt;stroke-linejoin:miter;stroke-opacity:1.0000000;" d="M 627.50094,210.79524 C 629.34008,211.53716 631.84089,207.00369 634.39024,205.84329 C 639.47624,203.52828 645.10653,202.29911 650.40700,200.36900 C 655.32359,198.57868 660.58308,197.28321 665.04143,194.68198 C 669.06680,192.33338 676.29622,188.97289 677.42536,186.77327 C 678.80117,184.09310 677.96929,172.11426 675.85816,166.24675 C 671.64123,154.52656 665.70646,141.65330 656.87398,132.75640 C 643.43668,119.22109 625.60764,109.23033 609.04882,98.950125 C 591.00172,87.745957 572.20257,77.512509 553.05623,68.303274 C 534.98022,59.608856 516.47054,51.244888 497.38177,45.239167 C 477.97563,39.133598 457.69294,35.245716 437.57149,31.969405 C 418.61606,28.882953 407.42331,28.631738 388.25984,28.178057 C 362.93806,27.578583 337.55376,28.063174 312.22445,28.809941 C 286.94495,29.555240 273.05251,31.455726 248.59650,36.708612 C 233.42366,39.967575 223.12966,44.193346 211.58250,50.291134 C 197.70091,57.621684 189.68847,62.864029 178.39177,72.939271 C 165.70679,84.252688 158.61988,91.143458 147.74619,104.32122 C 139.48088,114.33789 130.83015,124.06643 123.00194,134.41385 C 115.77154,143.97107 109.13824,154.00311 102.57035,164.03514 C 96.813285,172.82868 91.174055,181.73248 86.027075,190.89058 C 80.993584,199.84675 76.562678,209.15064 72.028938,218.37797 C 67.972910,226.63303 63.754419,234.83916 60.257771,243.33775 C 55.694873,254.42786 51.289989,265.66259 47.850299,277.14407 C 43.654633,291.14895 40.028611,305.42987 37.351702,319.79684 C 35.044420,332.18002 33.884721,344.82495 32.897724,357.39451 C 32.081931,367.78375 31.480046,378.27522 31.943331,388.67324 C 32.540516,402.07653 34.108628,415.51509 36.079133,428.79846 C 37.608161,439.10578 39.359964,449.50791 42.441928,459.44531 C 47.525554,475.83681 53.361366,492.21651 60.575903,507.78514 C 67.465559,522.65270 75.865963,536.97194 84.754507,550.75388 C 92.303176,562.45830 100.85890,573.63765 109.88754,584.24423 C 118.25055,594.06886 127.43246,603.30481 136.92945,612.04751 C 146.30875,620.68188 156.45373,628.52830 166.51642,636.37543 C 172.25466,640.85025 178.23620,645.04038 184.33226,649.01334 C 191.81017,653.88688 199.39090,658.66824 207.23833,662.91491 C 217.10068,668.25196 227.13472,673.40232 237.46160,677.76448 C 250.57101,683.30200 264.09779,687.91773 277.54721,692.61393 C 287.32198,696.02704 297.14164,699.40665 307.13417,702.09240 C 320.25979,705.62025 333.52526,708.91083 346.90167,711.25474 C 358.05626,713.20933 369.41684,714.42525 380.72717,714.98792 C 392.76243,715.58666 404.89305,715.36339 416.93843,714.73898 C 432.96116,713.90839 448.97161,712.34572 464.93151,710.62291 C 481.19443,708.86738 497.51399,707.11676 513.60689,704.30395 C 524.02564,702.48290 534.37733,699.86357 544.46645,696.72133 C 552.29920,694.28184 559.97310,691.10968 567.37251,687.55876 C 575.77404,683.52694 584.08106,679.07575 591.86928,673.97311 C 599.35177,669.07078 606.39444,663.38811 613.18464,657.54384 C 620.71073,651.06620 627.90986,644.14470 634.81816,637.00738 C 641.05964,630.55900 647.09225,623.84473 652.63399,616.78675 C 660.98435,606.15171 669.15184,595.27145 676.49447,583.92831 C 682.51370,574.62961 687.75791,564.77218 692.71959,554.86122 C 697.09000,546.13132 701.22657,537.19052 704.49076,528.00572 C 707.58936,519.28687 709.89186,510.21410 711.80798,501.15025 C 713.92163,491.15199 715.29595,480.96838 716.58007,470.81939 C 717.84107,460.85311 719.13187,450.83511 719.44333,440.80445 C 719.87419,426.92847 719.53929,412.97238 718.80703,399.09948 C 718.16068,386.85411 716.97786,374.59663 715.30751,362.44966 C 713.69041,350.68999 711.40734,338.99655 708.94469,327.37958 C 706.74129,316.98559 704.23480,306.63063 701.30936,296.41678 C 697.44782,282.93463 693.54310,258.96565 688.58375,256.29157 C 684.26074,253.96060 640.80225,262.21525 617.00233,265.76998 C 600.61060,268.21824 584.32067,271.35032 568.00880,274.30054 C 552.29459,277.14267 536.48292,279.59669 520.92411,283.14704 C 503.71452,287.07408 486.65106,291.77903 469.70361,296.73272 C 456.74592,300.52022 443.97067,304.95734 431.20870,309.37061 C 420.21623,313.17196 409.29723,317.20750 398.44030,321.37658 C 393.39024,323.31581 387.00873,329.71773 383.48773,327.69553 C 378.20686,324.66259 375.33453,313.60800 372.03470,306.21115 C 367.91127,296.96814 364.37457,287.40052 361.21795,277.77595 C 358.32992,268.97030 355.90570,259.97117 353.90073,250.92049 C 351.23965,238.90806 349.36481,226.71251 347.21980,214.58662 C 343.85039,195.53910 340.99587,176.38936 337.35748,157.40025 C 336.01169,150.37641 334.01374,143.48555 332.26725,136.54775 C 331.78676,134.63904 331.67403,132.40854 330.67654,130.86072 C 329.97728,129.77566 328.48872,128.81194 327.17701,128.64911 C 324.24685,128.28537 321.01836,128.98619 317.95094,129.28099 C 314.44347,129.61808 310.93855,130.03397 307.45234,130.54478 C 304.46971,130.98181 301.52207,132.00625 298.54441,132.12453 C 296.21974,132.21688 293.87295,131.52691 291.54534,131.17667 C 290.37342,131.00033 288.11152,129.58227 288.04581,130.54478 C 287.68733,135.79588 289.06545,143.47441 290.27277,149.81751 C 292.35289,160.74616 294.93087,171.63460 297.90814,182.36004 C 300.33925,191.11799 303.28093,199.76458 306.49791,208.26768 C 310.17396,217.98417 314.45518,227.47941 318.58721,237.01881 C 322.62077,246.33089 326.78202,255.58934 330.99467,264.82212 C 336.00808,275.80993 341.42709,286.61802 346.26539,297.68058 C 350.54710,307.47051 354.49699,317.41866 358.35470,327.37958 C 359.26908,329.74058 362.16498,333.36709 360.58167,334.64633 C 355.90823,338.42224 346.71582,340.32153 339.58445,342.54502 C 328.47581,346.00859 317.17479,348.94631 305.86164,351.70749 C 292.14780,355.05461 278.26025,357.68909 264.50348,360.86992 C 250.47605,364.11333 236.47210,367.47105 222.50902,370.98021 C 210.49068,374.00062 198.49233,377.12797 186.55921,380.45861 C 182.26721,381.65655 177.98842,382.96357 173.83366,384.56595 C 167.06563,387.17620 160.29529,389.89063 153.79085,393.09650 C 145.97899,396.94676 138.46362,401.42364 130.88477,405.73433 C 126.79850,408.05852 119.64761,409.95465 118.79549,413.00114 C 118.05691,415.64170 123.91948,419.37279 126.11268,422.79549 C 128.37343,426.32361 130.25036,430.11213 132.15734,433.85360 C 134.59827,438.64269 136.40817,443.83834 139.15641,448.38716 C 140.22585,450.15728 142.01930,451.46439 143.61039,452.81042 C 144.88256,453.88665 146.17690,455.25527 147.74619,455.65395 C 150.73690,456.41374 154.13338,456.48810 157.29039,456.28583 C 160.70827,456.06684 164.16509,455.34595 167.47086,454.39015 C 172.54277,452.92370 177.64296,451.25847 182.42342,449.01908 C 188.88390,445.99268 195.17104,442.44365 201.19366,438.59280 C 210.65385,432.54398 219.67906,425.79154 228.87183,419.32007 C 236.43442,413.99621 243.55313,407.92987 251.45973,403.20680 C 257.65732,399.50462 264.58487,397.04441 271.18440,394.04432 C 279.64349,390.19889 288.05957,386.24184 296.63558,382.67023 C 307.78423,378.02722 318.99878,373.49270 330.35838,369.40046 C 340.63228,365.69935 351.07190,362.20724 361.53609,359.29018 C 363.16122,358.83715 365.57532,358.15364 366.62633,359.29018 C 370.34742,363.31411 373.17138,369.40680 375.85238,374.77159 C 380.27650,383.62441 384.62962,392.62347 387.94169,401.94300 C 392.26497,414.10785 395.35963,426.74216 398.75844,439.22473 C 400.98009,447.38402 402.92236,455.62309 404.80309,463.86858 C 407.27027,474.68520 409.20820,485.62740 411.80218,496.41105 C 413.76821,504.58419 416.18841,512.64892 418.48311,520.73896 C 420.43027,527.60373 422.18343,534.54403 424.52776,541.27548 C 427.06157,548.55098 430.06327,555.68232 433.11753,562.75980 C 435.15351,567.47766 436.33326,575.53150 439.79848,576.66150 C 443.43838,577.84847 449.72734,572.32766 454.43291,569.71071 C 457.68083,567.90441 460.97182,565.82489 463.65896,563.39175 C 464.57740,562.56012 464.91150,561.13380 465.24966,559.91641 C 465.75987,558.07965 466.26482,556.09954 466.20407,554.22930 C 466.15877,552.83475 465.13046,551.53798 464.93151,550.12202 C 463.85790,542.48085 463.56974,534.69657 462.38640,527.05789 C 460.60044,515.52913 458.59953,503.99540 456.02360,492.61970 C 453.61534,481.98445 450.74555,471.41381 447.43382,461.02504 C 444.06462,450.45602 440.20013,440.00702 435.98081,429.74632 C 431.92850,419.89174 427.34709,410.23228 422.61892,400.67921 C 418.12103,391.59141 412.98041,382.82444 408.30263,373.82373 C 404.49668,366.50053 396.51794,357.51536 397.16774,351.70749 C 397.57841,348.03696 406.65842,347.36477 411.48403,345.38854 C 416.94495,343.15214 422.38837,340.78307 428.02732,339.06961 C 436.59861,336.46513 445.34944,334.31985 454.11476,332.43472 C 461.99875,330.73913 469.97595,329.36184 477.97525,328.32744 C 490.33690,326.72895 502.75828,325.32855 515.19760,324.53605 C 530.86062,323.53817 546.58360,323.33553 562.28228,322.95631 C 585.82083,322.38770 609.39522,322.67925 632.90931,321.69255 C 647.04176,321.09952 665.56488,313.68464 675.22190,318.21711 C 681.04769,320.95142 678.36553,335.01878 679.35773,343.49288 C 681.01670,357.66164 682.64214,371.90551 683.17540,386.14568 C 683.59655,397.39187 682.97108,408.71568 682.22096,419.95196 C 681.69852,427.77779 680.60765,435.58451 679.35773,443.33200 C 677.53231,454.64663 675.76555,466.03034 672.99493,477.13832 C 670.03903,488.98914 666.25999,500.68739 662.17816,512.20840 C 658.20044,523.43556 653.80159,534.57526 648.81628,545.38281 C 645.10577,553.42674 640.63500,561.15059 636.09070,568.76283 C 631.83314,575.89476 627.30930,582.91266 622.41070,589.61531 C 617.76511,595.97179 612.75879,602.11516 607.45813,607.94021 C 599.82110,616.33277 592.06410,624.73931 583.59764,632.26814 C 575.83897,639.16757 567.41229,645.45213 558.78275,651.22500 C 552.14158,655.66772 544.87852,659.20075 537.78552,662.91491 C 533.21339,665.30905 528.48729,667.41294 523.78738,669.54989 C 519.68542,671.41496 515.64062,673.48314 511.37992,674.92097 C 504.71782,677.16917 497.87765,679.01023 491.01897,680.60797 C 480.69811,683.01222 470.31641,685.37424 459.84128,686.92693 C 449.00105,688.53374 438.01575,689.32574 427.07288,690.08646 C 416.80643,690.80015 406.47514,691.73292 396.21333,691.35014 C 383.88722,690.89036 371.50076,689.47372 359.30913,687.55876 C 350.71563,686.20896 342.24146,683.91113 333.85795,681.55584 C 326.12237,679.38258 318.47992,676.79269 310.95188,673.97311 C 299.92177,669.84186 288.84932,665.68224 278.18351,660.70337 C 265.83722,654.94004 253.82725,648.38391 241.91557,641.74651 C 230.39095,635.32478 219.11762,628.43558 207.87459,621.52598 C 195.46923,613.90205 183.20730,606.03883 170.97039,598.14592 C 162.63427,592.76906 154.03257,587.69504 146.15549,581.71665 C 140.98885,577.79538 136.19084,573.26243 131.83922,568.44692 C 125.05595,560.94053 118.24458,553.23313 112.75082,544.75093 C 104.67061,532.27533 97.589560,518.97975 91.117302,505.57352 C 86.454665,495.91563 82.761617,485.73441 79.346136,475.55859 C 75.868596,465.19787 72.835702,454.62145 70.438239,443.96392 C 68.381747,434.82212 67.052554,425.47820 65.984272,416.16061 C 64.613472,404.20445 63.778786,392.16257 63.120994,380.14268 C 62.718316,372.78450 62.575414,365.39009 62.802863,358.02642 C 63.105650,348.22366 63.550716,338.37971 64.711704,328.64339 C 66.413972,314.36776 68.519238,300.06825 71.392632,285.99056 C 73.291338,276.68818 76.264054,267.59903 79.028005,258.50319 C 81.672434,249.80069 84.332212,241.06938 87.617773,232.59555 C 91.437337,222.74447 95.678731,213.00893 100.34338,203.52847 C 104.79873,194.47339 109.62729,185.54131 114.97777,176.98895 C 120.76218,167.74298 127.10843,158.78793 133.74806,150.13348 C 138.98565,143.30654 144.70758,136.81019 150.60945,130.54478 C 157.00897,123.75106 163.59726,117.05515 170.65225,110.95609 C 178.33773,104.31197 186.40563,97.983314 194.83086,92.315244 C 202.84286,86.925181 211.38033,82.221506 219.96394,77.781689 C 226.65104,74.322831 233.65960,71.451929 240.64300,68.619217 C 248.71821,65.343629 256.80583,61.922128 265.13977,59.456789 C 271.75839,57.498874 278.67441,56.487227 285.50067,55.349455 C 293.83907,53.959647 302.21493,52.434831 310.63375,51.874048 C 319.60657,51.276362 328.68733,51.395850 337.67561,51.874048 C 346.50315,52.343695 355.35271,53.305323 364.08121,54.717582 C 374.22900,56.359481 384.33575,58.518600 394.30448,61.036520 C 402.68181,63.152479 410.92657,65.856884 419.11939,68.619217 C 428.10612,71.649231 437.03241,74.903675 445.84313,78.413561 C 455.80265,82.381087 465.70755,86.535919 475.43012,91.051453 C 487.02291,96.435586 498.41362,102.27478 509.78922,108.11256 C 520.57736,113.64886 531.17516,119.55474 541.92134,125.17367 C 549.03131,128.89131 556.60752,131.85140 563.35765,136.12225 C 569.75730,140.17134 575.79916,144.99640 581.37066,150.13348 C 586.57560,154.93258 591.00897,160.58279 595.68696,165.93080 C 600.12898,171.00903 604.76143,175.97339 608.73069,181.41222 C 613.13911,187.45279 616.78538,194.05318 620.82001,200.36900 C 623.04213,203.84752 624.81667,209.71240 627.50094,210.79524 z " id="path977" sodipodi:nodetypes="csssssssssssssssssssssssssssssssssssssssssssssssssssssssssssssssssssssssssssssssssssssssssssssssssssssssssssssssssssssssssssssssssssssssssssssssssssssssssssssssssssssssssssssssssssssssssssssssssssssssssssss"/>
</svg>

<?xml version="1.0" encoding="UTF-8" standalone="no"?><!--Created with Inkscape (http://www.inkscape.org/)--><svg sodipodi:version=".32" inkscape:version=".39" width="800" height="800" sodipodi:docname="Geocaching.svg" xmlns="http://www.w3.org/2000/svg" xmlns:cc="http://web.resource.org/cc/" xmlns:inkscape="http://www.inkscape.org/namespaces/inkscape" xmlns:sodipodi="http://sodipodi.sourceforge.net/DTD/sodipodi-0.dtd" xmlns:rdf="http://www.w3.org/1999/02/22-rdf-syntax-ns#" xmlns:dc="http://purl.org/dc/elements/1.1/" sodipodi:docbase="/home/jpkontio/Projects/Geocaching/Images" data-ember-extension="1"><sodipodi:namedview pagecolor="#ffffff" bordercolor="#666666" borderopacity="1" inkscape:pageopacity="0" inkscape:pageshadow="2" inkscape:zoom=".499" inkscape:cx="515.714" inkscape:cy="337.57" inkscape:window-width="740" inkscape:window-height="641" inkscape:window-x="148" inkscape:window-y="31"/><metadata><rdf:RDF><cc:Work><dc:format>image/svg+xml</dc:format><dc:type rdf:resource="http://purl.org/dc/dcmitype/StillImage"/></cc:Work></rdf:RDF></metadata><path style="fill:#000000;fill-opacity:1.0000000;fill-rule:evenodd;stroke:none;stroke-width:1.0000000pt;stroke-linecap:butt;stroke-linejoin:miter;stroke-opacity:1.0000000" d="M627.5 210.795c1.84.742 4.34-3.791 6.89-4.952 5.086-2.315 10.717-3.544 16.017-5.474 4.917-1.79 10.176-3.086 14.634-5.687 4.026-2.349 11.255-5.71 12.384-7.909 1.376-2.68.544-14.659-1.567-20.526-4.217-11.72-10.152-24.594-18.984-33.49-13.437-13.536-31.266-23.527-47.825-33.807-18.047-11.204-36.846-21.437-55.993-30.647-18.076-8.694-36.585-17.058-55.674-23.064-19.406-6.105-39.69-9.993-59.81-13.27-18.956-3.086-30.149-3.337-49.312-3.79-25.322-.6-50.706-.116-76.036.63-25.279.746-39.171 2.647-63.627 7.9-15.173 3.259-25.467 7.484-37.014 13.582-13.882 7.33-21.895 12.573-33.191 22.648-12.685 11.314-19.772 18.204-30.646 31.382-8.265 10.017-16.916 19.745-24.744 30.093-7.23 9.557-13.864 19.59-20.432 29.621-5.757 8.794-11.396 17.697-16.543 26.856-5.033 8.956-9.464 18.26-13.998 27.487-4.056 8.255-8.275 16.461-11.771 24.96-4.563 11.09-8.968 22.325-12.408 33.806-4.195 14.005-7.821 28.286-10.498 42.653-2.308 12.383-3.467 25.028-4.454 37.598-.816 10.389-1.418 20.88-.955 31.278.598 13.404 2.166 26.842 4.136 40.125 1.53 10.308 3.281 20.71 6.363 30.647 5.084 16.392 10.92 32.772 18.134 48.34 6.89 14.868 15.29 29.187 24.179 42.969 7.548 11.704 16.104 22.884 25.133 33.49 8.363 9.825 17.544 19.06 27.041 27.804 9.38 8.634 19.525 16.48 29.587 24.327 5.739 4.475 11.72 8.665 17.816 12.638 7.478 4.874 15.059 9.655 22.906 13.902 9.863 5.337 19.897 10.487 30.224 14.85 13.109 5.537 26.636 10.153 40.085 14.849 9.775 3.413 19.595 6.793 29.587 9.478 13.126 3.528 26.391 6.819 39.768 9.163 11.154 1.954 22.515 3.17 33.825 3.733 12.035.599 24.166.375 36.211-.249 16.023-.83 32.034-2.393 47.994-4.116 16.262-1.756 32.582-3.506 48.675-6.32 10.419-1.82 20.77-4.44 30.86-7.582 7.832-2.44 15.506-5.611 22.906-9.162 8.401-4.032 16.708-8.483 24.496-13.586 7.483-4.902 14.525-10.585 21.316-16.43 7.526-6.477 14.725-13.398 21.633-20.536 6.242-6.448 12.274-13.162 17.816-20.22 8.35-10.635 16.518-21.516 23.86-32.859 6.02-9.298 11.264-19.156 16.226-29.067 4.37-8.73 8.507-17.67 11.77-26.855 3.1-8.72 5.402-17.792 7.318-26.856 2.114-9.998 3.488-20.182 4.772-30.33 1.261-9.967 2.552-19.985 2.863-30.016.431-13.876.096-27.832-.636-41.705a439.399 439.399 0 0 0-3.5-36.65c-1.617-11.759-3.9-23.452-6.362-35.07-2.204-10.393-4.71-20.748-7.636-30.962-3.861-13.482-7.766-37.451-12.725-40.125-4.323-2.331-47.782 5.923-71.582 9.478-16.391 2.448-32.681 5.58-48.993 8.53-15.714 2.843-31.526 5.297-47.085 8.847-17.21 3.927-34.273 8.632-51.22 13.586-12.958 3.787-25.733 8.224-38.495 12.638-10.993 3.801-21.912 7.837-32.769 12.006-5.05 1.939-11.431 8.34-14.952 6.319-5.281-3.033-8.153-14.088-11.453-21.485-4.124-9.243-7.66-18.81-10.817-28.435-2.888-8.806-5.312-17.805-7.317-26.856-2.661-12.012-4.536-24.207-6.681-36.333-3.37-19.048-6.224-38.198-9.863-57.187-1.345-7.024-3.343-13.914-5.09-20.852-.48-1.909-.593-4.14-1.59-5.687-.7-1.085-2.188-2.05-3.5-2.212-2.93-.364-6.159.337-9.226.632a213 213 0 0 0-10.499 1.264c-2.982.437-5.93 1.461-8.908 1.58-2.324.092-4.671-.598-6.999-.948-1.172-.177-3.433-1.595-3.5-.632-.358 5.25 1.02 12.93 2.228 19.273 2.08 10.928 4.658 21.817 7.635 32.542 2.431 8.758 5.373 17.405 8.59 25.908 3.676 9.716 7.957 19.211 12.09 28.75 4.033 9.313 8.194 18.571 12.407 27.804 5.013 10.988 10.432 21.796 15.27 32.859 4.282 9.79 8.232 19.738 12.09 29.699.914 2.36 3.81 5.987 2.227 7.266-4.674 3.776-13.866 5.676-20.998 7.899-11.108 3.464-22.41 6.401-33.722 9.162-13.714 3.348-27.602 5.982-41.359 9.163a2274.557 2274.557 0 0 0-41.994 10.11c-12.018 3.02-24.017 6.148-35.95 9.479-4.292 1.198-8.57 2.505-12.725 4.107-6.768 2.61-13.539 5.325-20.043 8.53-7.812 3.85-15.327 8.328-22.906 12.638-4.086 2.325-11.237 4.22-12.09 7.267-.738 2.64 5.124 6.372 7.318 9.794 2.26 3.529 4.137 7.317 6.044 11.059 2.441 4.789 4.251 9.984 7 14.533 1.069 1.77 2.862 3.077 4.453 4.423 1.273 1.077 2.567 2.445 4.136 2.844 2.99.76 6.387.834 9.544.632 3.418-.22 6.875-.94 10.18-1.896 5.073-1.466 10.173-3.132 14.953-5.37 6.46-3.027 12.748-6.576 18.77-10.427 9.46-6.049 18.486-12.801 27.679-19.273 7.562-5.324 14.681-11.39 22.588-16.113 6.197-3.702 13.125-6.163 19.724-9.163 8.46-3.845 16.876-7.802 25.452-11.374 11.148-4.643 22.363-9.177 33.722-13.27 10.274-3.7 20.714-7.193 31.178-10.11 1.625-.453 4.04-1.136 5.09 0 3.721 4.024 6.545 10.117 9.226 15.482 4.425 8.852 8.778 17.851 12.09 27.171 4.323 12.165 7.418 24.8 10.816 37.282 2.222 8.159 4.164 16.398 6.045 24.644 2.467 10.816 4.405 21.758 7 32.542 1.965 8.173 4.385 16.238 6.68 24.328 1.947 6.865 3.7 13.805 6.045 20.536 2.534 7.276 5.535 14.407 8.59 21.485 2.036 4.718 3.215 12.772 6.68 13.902 3.64 1.186 9.93-4.334 14.635-6.951 3.248-1.807 6.539-3.886 9.226-6.32.918-.83 1.252-2.257 1.59-3.475.51-1.836 1.016-3.816.955-5.687-.045-1.394-1.074-2.691-1.272-4.107-1.074-7.641-1.362-15.425-2.546-23.064-1.786-11.529-3.786-23.063-6.362-34.438a381.745 381.745 0 0 0-8.59-31.595c-3.37-10.569-7.234-21.018-11.453-31.279-4.053-9.854-8.634-19.514-13.362-29.067-4.498-9.088-9.639-17.855-14.316-26.855-3.806-7.323-11.785-16.309-11.135-22.117.41-3.67 9.49-4.342 14.316-6.318 5.461-2.237 10.904-4.606 16.543-6.32 8.572-2.604 17.322-4.75 26.088-6.634a291.257 291.257 0 0 1 23.86-4.108c12.362-1.598 24.783-2.998 37.223-3.791 15.663-.998 31.386-1.2 47.084-1.58 23.539-.568 47.113-.277 70.627-1.263 14.133-.593 32.656-8.008 42.313-3.476 5.826 2.734 3.144 16.802 4.136 25.276 1.659 14.169 3.284 28.413 3.817 42.653.422 11.246-.204 22.57-.954 33.806-.522 7.826-1.613 15.633-2.863 23.38-1.826 11.315-3.592 22.698-6.363 33.806-2.956 11.851-6.735 23.55-10.817 35.07-3.978 11.228-8.376 22.367-13.362 33.175-3.71 8.044-8.181 15.768-12.725 23.38-4.258 7.132-8.782 14.15-13.68 20.852a221.208 221.208 0 0 1-14.953 18.325c-7.637 8.393-15.394 16.8-23.86 24.328-7.759 6.9-16.186 13.184-24.815 18.957-6.641 4.443-13.904 7.976-20.997 11.69-4.573 2.394-9.299 4.498-13.999 6.635-4.102 1.865-8.146 3.933-12.407 5.371-6.662 2.248-13.502 4.09-20.361 5.687-10.32 2.404-20.703 4.766-31.178 6.319-10.84 1.607-21.825 2.399-32.768 3.16-10.267.713-20.598 1.646-30.86 1.263-12.326-.46-24.712-1.876-36.904-3.791-8.593-1.35-17.068-3.648-25.451-6.003-7.736-2.173-15.378-4.763-22.906-7.583-11.03-4.131-22.103-8.29-32.768-13.27-12.347-5.763-24.357-12.32-36.268-18.956-11.525-6.422-22.798-13.311-34.041-20.221-12.406-7.624-24.668-15.487-36.905-23.38-8.336-5.377-16.937-10.451-24.815-16.43-5.166-3.92-9.964-8.454-14.316-13.27-6.783-7.505-13.594-15.213-19.088-23.695-8.08-12.476-15.161-25.771-21.634-39.177-4.662-9.658-8.355-19.84-11.77-30.015-3.478-10.361-6.511-20.938-8.909-31.595-2.056-9.142-3.385-18.486-4.454-27.803-1.37-11.957-2.205-23.998-2.863-36.018-.403-7.358-.546-14.753-.318-22.117.303-9.802.748-19.646 1.909-29.383 1.702-14.275 3.807-28.575 6.68-42.652 1.9-9.303 4.872-18.392 7.636-27.488 2.644-8.702 5.304-17.434 8.59-25.907 3.82-9.852 8.06-19.587 12.725-29.068 4.456-9.055 9.284-17.987 14.635-26.54 5.784-9.245 12.13-18.2 18.77-26.855 5.238-6.826 10.96-13.323 16.861-19.588 6.4-6.794 12.988-13.49 20.043-19.589 7.686-6.644 15.754-12.973 24.179-18.64 8.012-5.39 16.55-10.094 25.133-14.534 6.687-3.46 13.696-6.33 20.679-9.163 8.075-3.275 16.163-6.697 24.497-9.162 6.618-1.958 13.534-2.97 20.36-4.108 8.34-1.39 16.715-2.914 25.134-3.475 8.973-.598 18.053-.478 27.042 0 8.827.47 17.677 1.431 26.405 2.844 10.148 1.641 20.255 3.8 30.223 6.319 8.378 2.115 16.623 4.82 24.815 7.582a528.391 528.391 0 0 1 26.724 9.795c9.96 3.967 19.865 8.122 29.587 12.637 11.593 5.385 22.984 11.224 34.36 17.062 10.787 5.536 21.385 11.442 32.131 17.06 7.11 3.718 14.687 6.678 21.437 10.95 6.4 4.048 12.441 8.873 18.013 14.01 5.205 4.8 9.638 10.45 14.316 15.798 4.442 5.078 9.074 10.042 13.044 15.481 4.408 6.04 8.054 12.641 12.089 18.957 2.222 3.479 3.997 9.343 6.68 10.426z" sodipodi:nodetypes="csssssssssssssssssssssssssssssssssssssssssssssssssssssssssssssssssssssssssssssssssssssssssssssssssssssssssssssssssssssssssssssssssssssssssssssssssssssssssssssssssssssssssssssssssssssssssssssssssssssssssssss"/></svg>
